X:166
T:Polska efter Olle Halvarsson
R:Polska
S:efter Olle Halvarsson, Högvålen
S:Uppt./rekonstruktion efter gammal inspelning
M:3/4
L:1/8
Q:148
O:Högvålen, Härjedalen
N:Låten finns i Rörostradition; "Sven Pålsa-lek" efter Peder Nyhus far,
N:Sven Paulsson, funäsdaling som flyttade till Röros på 1890-talet
N:Uppt. Lennart Sohlman
Z:ABC-transkr. L Sohlman
K:A
(vE[AA]) ([AA][ce]) [ce][ee]|((3efg) (g<a) c>c|({cd}(3cBc) (d>E) GB|(BG) u((3ABc) v(E2-|! 
E[AA]) ([AA][ce]) [ce][ee]|((3efg) (g<a) c>c|({cd}(3cBc) (d>E) GB|v([G/B/][A3/A3/]) [A4A4]::! 
(A>d) (d[df]) [df][df]|(3(fgf) (u[e3e3]z/u.e/)|(e>f) [d2f2] [df]z/[d/f/]|(3(ded) u[c2e2] (vA2-|! 
A>d) (d[df]) [df][df]|(3(fgf) [e3e3] (a|gf) (ed) (3B(GB)|([G/B/][A3/A3/])[A4A4]:|]
(:musicend:)

(:music:)
